public/images/search.svg

<?xml version="1.0" encoding="UTF-8"?>
<svg width="24px" height="24px" viewBox="0 0 24 24" version="1.1" xmlns="http://www.w3.org/2000/svg" xmlns:xlink="http://www.w3.org/1999/xlink">
    <!-- Generator: Sketch 64 (93537) - https://sketch.com -->
    <title>search</title>
    <desc>Created with Sketch.</desc>
    <g id="Page-1" stroke="none" stroke-width="1" fill="none" fill-rule="evenodd">
        <g id="search" fill="#231E3F" fill-rule="nonzero">
            <path d="M10,0 C4.4889971,0 0,4.4889971 0,10 C0,15.511003 4.4889971,20 10,20 C12.396508,20 14.597385,19.148986 16.322266,17.736328 L22.292969,23.707031 C22.5437856,23.9682718 22.916236,24.0735066 23.2666781,23.9821498 C23.6171201,23.890793 23.890793,23.6171201 23.9821498,23.2666781 C24.0735066,22.916236 23.9682718,22.5437856 23.707031,22.292969 L17.736328,16.322266 C19.148986,14.597385 20,12.396508 20,10 C20,4.4889971 15.511003,0 10,0 Z M10,2 C14.430123,2 18,5.5698774 18,10 C18,14.430123 14.430123,18 10,18 C5.5698774,18 2,14.430123 2,10 C2,5.5698774 5.5698774,2 10,2 Z" id="Shape"></path>
        </g>
    </g>
</svg>

<?xml version="1.0" encoding="utf-8"?>
<!-- Generator: Adobe Illustrator 26.3.1, SVG Export Plug-In . SVG Version: 6.00 Build 0)  -->
<svg version="1.1" id="Layer_1" xmlns="http://www.w3.org/2000/svg" xmlns:xlink="http://www.w3.org/1999/xlink" x="0px" y="0px"
	 viewBox="0 0 24 24" style="enable-background:new 0 0 24 24;" xml:space="preserve">
<style type="text/css">
	.st0{fill:#E6C71F;}
</style>
<g id="Page-1">
	<g id="search">
		<path id="Shape" class="st0" d="M10,0C4.5,0,0,4.5,0,10s4.5,10,10,10c2.4,0,4.6-0.9,6.3-2.3l6,6c0.3,0.3,0.6,0.4,1,0.3
			c0.4-0.1,0.6-0.4,0.7-0.7c0.1-0.4,0-0.7-0.3-1l-6-6c1.4-1.7,2.3-3.9,2.3-6.3C20,4.5,15.5,0,10,0z M10,2c4.4,0,8,3.6,8,8
			s-3.6,8-8,8s-8-3.6-8-8S5.6,2,10,2z"/>
	</g>
</g>
</svg>
